dist/img/svg/ic_arrow-ok.svg

<svg width="8" height="6" viewBox="0 0 8 6" fill="none" xmlns="http://www.w3.org/2000/svg">
<path d="M3.06335 5.88441C2.98699 5.95861 2.88279 6 2.77457 6C2.66634 6 2.56216 5.95861 2.48579 5.88441L0.179506 3.65644C-0.0598354 3.42526 -0.0598354 3.05039 0.179506 2.81965L0.468288 2.54064C0.707703 2.30947 1.09536 2.30947 1.33471 2.54064L2.77457 3.93147L6.6653 0.173384C6.90471 -0.0577945 7.29274 -0.0577945 7.53171 0.173384L7.82049 0.452386C8.05984 0.683564 8.05984 1.05836 7.82049 1.28918L3.06335 5.88441Z" fill="#187510"/>
</svg>

<svg width="8" height="6" viewBox="0 0 8 6" fill="none" xmlns="http://www.w3.org/2000/svg"><path d="M3.063 5.884A.415.415 0 012.775 6a.415.415 0 01-.29-.116L.18 3.656a.577.577 0 010-.836l.288-.28a.628.628 0 01.867 0l1.44 1.391L6.665.173a.628.628 0 01.867 0l.288.28c.24.23.24.605 0 .836L3.063 5.884z" fill="#187510"/></svg>
